X:1
T:The Twelve Pins
R:reel
M:4/4
L:1/8
K:G
|:dB~B2 dBGB|dA~A2 dAFA|DEFG ABcA|defg afge|
|dB~B2 dBGB|dA~A2 dAFA|DEFG ABcA|d2Bd AG~G2:|
|f2fe defg|afge cAAB|c2cB c2AB|cedB cAAe|
|f2fe defg|afge cAAB|c2cB c2AB|cAdc AG~G2|
|f2fe defg|afge cAAB|c2AB cdeg|abga edde|
|f2fg a2ag|f2ed cAAB|c2cB c2AB|cAdc AG~G2|